src/assets/icons/star-half.svg

<svg width="14" height="14" viewBox="0 0 14 14" fill="none" xmlns="http://www.w3.org/2000/svg">
<g id="star-half">
<path id="Vector" fill-rule="evenodd" clip-rule="evenodd" d="M7.12839 0.330099C7.38774 0.390595 7.57122 0.621803 7.57122 0.888117V11.0264C7.57122 11.2393 7.45312 11.4347 7.26457 11.5337L3.29179 13.6194C3.09878 13.7207 2.86499 13.7038 2.68863 13.5756C2.51227 13.4475 2.4239 13.2304 2.46064 13.0155L3.16631 8.88844L0.172754 5.96616C0.0166837 5.8138 -0.039359 5.58606 0.0281896 5.37868C0.0957382 5.17129 0.275163 5.02024 0.491024 4.98904L4.63139 4.39043L6.48436 0.634599C6.60219 0.39577 6.86904 0.269604 7.12839 0.330099ZM6.42523 3.34462L5.5257 5.1679C5.44218 5.33718 5.28065 5.45447 5.09383 5.48148L1.80405 5.95711L4.18206 8.27851C4.31683 8.41007 4.37834 8.59946 4.3466 8.7851L3.78565 12.0658L6.42523 10.68V3.34462Z" fill="black"/>
</g>
</svg>

<svg xmlns="http://www.w3.org/2000/svg" fill="none" viewBox="0 0 14 14"><path fill="#000" fill-rule="evenodd" d="M7.128.33c.26.06.443.292.443.558v10.138a.57.57 0 0 1-.306.508l-3.973 2.085a.573.573 0 0 1-.831-.604l.705-4.127L.173 5.966A.573.573 0 0 1 .49 4.99l4.14-.599L6.484.635A.57.57 0 0 1 7.128.33m-.703 3.015-.9 1.823a.57.57 0 0 1-.431.313l-3.29.476L4.182 8.28c.135.131.196.32.165.506l-.561 3.28 2.64-1.385z" clip-rule="evenodd"/></svg>
